X:237
T:Respolska
R:sl\"angpolska
H:jfr #188, #215
A:S\"ormland
B:M 19, Johan August Ericsson, Nyk\"oping
Z:id:hn-sp-237
M:3/4
L:1/16
K:C
e3c G2G2 F2F2 | E2E2 GFEF G4 | e3c G2G2 F2F2 | E2E2 GFEF G4 |
A3F c3A F3A | G3F E3F G4 | A2AF c2cA F2FA | G3F EDEF G4 |
A3F f2e2 d2c2 | Bcde d4 c4 || B3c d2de d2de | d2c2 B2A2 G4 |
B3c d2de d2de | d2c2 B2A2 G4 | e3c G2G2 F2F2 | E2E2 GFEF G4 |
e3c G2G2 F2F2 | E2E2 GFEF G4 | A3F c3A F3A | G3F E3F G4 |
A2AF c2cA F2FA | G3F EDEF G4 | A3F f2e2 d2c2 | Bcde d4 c4 ||

